X:594
T:Lone Star Rag
C:Arnold MacDonald's version
N:For the dance "Johnson City Circle" by Gary Roodman
Q:1/2=108
S:Colin Hume's website,  colinhume.com  - chords can also be printed below the stave.
M:2/2
R:Rag
%%MIDI chordname dim 0 3 6 9
L:1/8
K:C
P:A
"C"cdeg- gage | "/"agec- cdcA | "F"FGAc- cdcA | "/"dcAc- cdcA |
"G7"BdBG- G2A^A | "/"BdBG- G2AB |1 "C"cBca- "C#dim"agea | "G7/D"g4- "G7"g4 :|2 "C"cBca- "G7"age2 | "C"c8 ||
P:B
"A7"agea- ageg | "/"agea- age2 | "D7"dcAd- dcAc | "/"dcAd- dcA^A |
"G7"BdBG- G2A^A | "/"BdBG- G2AB | "C"cBca- "C#dim"agea | "G7/D"g4 "E7"^g4 |
"A7"agea- ageg | "/"agea- agec | "D7"dcAd- dcAc | "/"dcAd- dcA^A |
"G7"BdBG- G2A^A | "/"BdBG- G2AB | "C"cdea- "G7"age2 | "C"c8 |]

